X:15547
%10832
T:Minuet,(Melody). BC.53a
M:3/4
L:1/8
Q:1/4=120
S:Benjamin Cooke MS.circa 1770, F.Kidson Coll.
R:Minuet
O:England
A:x
Z:vmp.John Bagnall
K:Cmaj
G2 GGGG | c4 d2 | efgedc | "tr" d2 cBAG | A2 c4 | G2 c2 F2 |
%Error : Guitar chord name not properly closed
 E/2D/2C "tr"

%Error : Guitar chord name not properly closed
"D4 | {D} C6 |!|"
e2 eeee 
%Error : Bar 6 is 1/1 not 3/4
| "tr"d4 g2 | ce d2 c2 | "tr"B4 c2 | d2 e2 ^f2 | g2 d2 c2 | B/2A/2
G "tr"A3 G |G6 |
%Error : '!' or '+' in middle of line ignored
 Gc e2 G2 | FA d2 F2 |EG c2 E2 | D6 | {g}f2 e2 d2 | efg
e
dc | f/2e/2d d3 c | c6 |]


